X:0701
T:Ye're Welcome, Charly Stuart
P:Ye're Welcome, Charly Stuart
C:Rutherford's Country Dances, ca. 1750
R:Reel (8x32)
B:RSCDS 7-1
Z:Anselm Lingnau <anselm@strathspey.org>
M:C|
L:1/8
K:D
B|"D"AFED "G"G2 GB|"D"AFED "Em"E/E/E EB|"D"AFED "G"BcdB|"D"AF"A7"dF "D"D/D/DDB|
  "D"AFED "G"G2 GB|"D"AFED "Em"E/E/E EB|"D"AFED "G"BcdB|"D"AF"A7"dF "D"D/D/DD||
e|"D"defd "A7"gfec|"D"defd "A"ecBA|"D"defd "A7"gfeg|"D"f/g/a "A7"Ac "D"d2 de|
  "D"defd "A7"gfec|"D"defd "A"ecBA|"D"defd "A7"gfeg|"D"f/g/a "A7"Ac "D"d2 d|]

